X:1
T:Title
%%score { ( 1 3 ) | ( 2 4 ) }
L:1/8
M:4/4
K:Bb
V:1 treble nm="Grand Piano"
V:3 treble 
V:2 bass 
V:4 bass 
V:1
 z4 z2[Q:1/4=100] [B,DF]2 | [DFB]2 [CFA]2 [B,FB]2 G-[Gc] | B2 A2 [DB]3 [DF] | GG^FG [=FB]2 [Fd]2 | %4
 z2 [=Ed]2 z4 | [DB]2 [EA]2 [DB]2 [DF]2 | GBAc [Fd]3 [Fc] | [GB][GB][FA]G F2 Bc | %8
[M:7/8] B2 A2 [DFB]3 |[M:1/4] [B,DB]2 |[M:4/4] [Fc]6 z2 | [Fd]6[K:bass][K:treble] z2 | %12
 [Ge][Ge][Ge][Ge] [Fd]2 [FB]2 | c2 d2 c2 c2 | [Fd][Fd][Fd][Fd] [Fd]2 [Fc]2 | %15
 [GB][GB][GB][GB] [GB]3 G | FF[FB][Fc] [Fd]2 c2 |[M:7/8] B2 A2 [DB]3 |[M:1/4] [DB]2 | %19
[M:4/4] [Fc]6 z2 | [Fd]6[K:bass][K:treble] z2 | [Ge][Ge][Ge][Ge] [Fd]2 [FB]2 | c2 d2 c2 c2 | %23
 [Fd][Fd][Fd][Fd] [Fd]2 [Fc]2 | [GB][GB][GB][GB] [GB]3 G | FF[FB][Fc] [Fd]2 c2 | %26
[M:7/8] B2 A2 [DB]3 |] %27
V:2
 z4 z2 B,,2 | B,,2 C,2 D,2 z E | [F,DF]2 [F,CE]2 [B,,B,]3 [B,,B,] | %3
 [E,B,E][E,B,E][E,B,E][E,B,E] [D,B,]2 [B,,B,]2 | [C,A,]2 .[C,G,]2 [F,A,F]2 z [F,E] | %5
 [B,,F,]2 [C,F,]2 [B,,F,]2 [B,,B,]2 | [E,B,E][E,G,E][F,E][F,A,F] [B,,B,]3 [D,B,] | %7
 [E,B,][E,B,][E,B,][E,B,E] [F,B,D]2 [F,DF][F,EF] |[M:7/8] [F,DF]2 [F,EF]2 B,,3 |[M:1/4] B,,2 | %10
[M:4/4] [F,A,]F,F,A, F,2 [F,A,F]2 | [B,,B,]B,,D,F, B,2 B,2 | %12
 [E,B,][E,B,][E,B,][E,B,] [B,,B,]2 [D,B,]2 | [F,A,F]2 [F,B,F]2 [F,A,F]2 [F,A,F]2 | %14
 [B,,B,][B,,B,][B,,B,][B,,B,] [B,,B,]2 [D,B,]2 | [E,B,][E,B,][E,B,][E,B,] [E,B,]3 [E,B,E] | %16
 [F,B,D][F,B,D][D,B,][C,A,] [B,,B,]2 [E,G,E]2 |[M:7/8] [F,D]2 [F,C]2 [B,,F,]3 |[M:1/4] [B,,B,]2 | %19
[M:4/4] [F,A,]F,F,A, F,2 [F,A,F]2 | [B,,B,]B,,D,F, B,2 B,2 | %21
 [E,B,][E,B,][E,B,][E,B,] [B,,B,]2 [D,B,]2 | [F,A,F]2 [F,B,F]2 [F,A,F]2 [F,A,F]2 | %23
 [B,,B,][B,,B,][B,,B,][B,,B,] [B,,B,]2 [D,B,]2 | [E,B,][E,B,][E,B,][E,B,] [E,B,]3 [E,B,E] | %25
 [F,B,D][F,B,D][D,B,][C,A,] [B,,B,]2 [E,G,E]2 |[M:7/8] [F,D]2 [F,C]2 [B,,F,]3 |] %27
V:3
 x8 | z4 z2 .B,2 | x8 | x8 | [Fc]2 z B, c2 z F | x8 | x8 | x8 |[M:7/8] x7 |[M:1/4] x2 | %10
[M:4/4] z A, .A,2 A,2 c2 | z[K:bass] B,B,B, z2[K:treble] [Fd]2 | x8 | x8 | x8 | x8 | x8 | %17
[M:7/8] x7 |[M:1/4] x2 |[M:4/4] z A, .A,2 A,2 c2 | z[K:bass] B,B,B, z2[K:treble] [Fd]2 | x8 | x8 | %23
 x8 | x8 | x8 |[M:7/8] x7 |] %27
V:4
 x8 | z4 z2 E,2 | x8 | x8 | x8 | x8 | x8 | x8 |[M:7/8] x7 |[M:1/4] x2 |[M:4/4] x8 | x8 | x8 | x8 | %14
 x8 | x8 | x8 |[M:7/8] x7 |[M:1/4] x2 |[M:4/4] x8 | x8 | x8 | x8 | x8 | x8 | x8 |[M:7/8] x7 |] %27

